X: 60
T: REELS: Jenny's Wedding Set
T: Jenny's Wedding
C: C: Trad.; S: Planxty
C: Set Leaders: Sophie, Anton
Z: Anton Zille ed., Oleg Naumov arr.; Owen H / James Dumbelton / JACKB at The Session
N: https://thesession.org/members/26966/sets/99412
R: Reel
M: 4/4
L: 1/8
Q: 1/2=100
K: Dmaj
|:"D"D2 F/E/D AD F/E/D|Adde fded|cAAB "C"=c3d|eaag "G"edcd|
"D"D2FA dfed|cAAB "C"=cdeg|"A"fdec d2cA|"G"B/c/d AG "A"FDD2:||
|:"D"d2fd adfd|"A"ecAB cdec|"Bm"d2fd adfd|"D/F#"cd eg "Em"fddc|
"D"d2fd adfd|"A"cd ef g2fg|"G"af ge d2cA|"A"B/c/d AG FD D2:||
T: Virginia
K: Dmaj
"G"DBBA B3B|BAdB "A"AFEF|"D"DF F/F/F A3B|AFBF AFEF|
"G"DBBA B3B|BAdB "A"ABde|"D"~f3e defe|dBAF BE E2:||
|:"D"de"(A)"fe "D"d3A|"D"BAFA dAFA|"Em"defe defg|"A"afbf afeg|
"Bm"fedf efdB|"D/F#"AF F/F/F ABde|"G"~f3e defe|"G"dBAF "A"BE E2:||
T: Garrett Barry's
K: Gmaj
|:"G"G3B d3e|edBe "C"dBAB|"G/B"GDGB dedB|"C"AEGE "D"DGBA|
"G"~G3B dGBd|"Em"edBA "(G/B)"GA B/c/d|"C"edcB cdef|1 "D"gedB AdBA:|2 "D"gedB A2 ef||
|:"G"g3b abge|"G/B"dBAB GABc|"G"dggf gedg|"C"eaag "(D)"a2 ga|
"G (Em)"bg~g2 abge|"G/B"dBAB GA B/c/d|"C"edcB "Am"cdef|1 "D"gedB A2 ef:|2 "D"gedB AdBA||

